lib/svgs/trash.svg

<svg xmlns="http://www.w3.org/2000/svg" viewBox="0 0 16 16">
    <path d="M15.4 3.128h-4.498v-.766c0-1.08-.88-1.96-1.96-1.96H7.058c-1.081 0-1.96.88-1.96 1.96v.766H.6a.6.6 0 0 0 0 1.201h1.296l1.89 10.773c.05.287.299.496.591.496h7.246a.6.6 0 0 0 .591-.496l1.89-10.773H15.4a.6.6 0 0 0 0-1.201M3.114 4.329h2.025l.727 10.07h-.985L3.114 4.329m3.955 10.07l-.726-10.07h3.314l-.726 10.07H7.069m4.05 0h-.985l.726-10.07h2.026l-1.767 10.07M7.058 1.603h1.884c.419 0 .76.34.76.759v.766H6.298v-.766a.76.76 0 0 1 .76-.759"/>
</svg>

<?xml version="1.0" encoding="UTF-8"?>
<svg width="16px" height="16px" viewBox="0 0 16 16" version="1.1" xmlns="http://www.w3.org/2000/svg" xmlns:xlink="http://www.w3.org/1999/xlink">
    <!-- Generator: sketchtool 51.3 (57544) - http://www.bohemiancoding.com/sketch -->
    <title>operation/trash</title>
    <desc>Created with sketchtool.</desc>
    <defs></defs>
    <g id="Icons" stroke="none" stroke-width="1" fill="none" fill-rule="evenodd">
        <g id="Web" transform="translate(-435.000000, -1996.000000)" fill="#000000">
            <g id="operation/trash" transform="translate(435.000000, 1996.000000)">
                <path d="M15.4,3.128 L10.902,3.128 L10.902,2.362 C10.902,1.282 10.022,0.402 8.942,0.402 L7.058,0.402 C5.977,0.402 5.098,1.282 5.098,2.362 L5.098,3.128 L0.6,3.128 C0.268,3.128 0,3.397 0,3.729 C0,4.06 0.268,4.329 0.6,4.329 L1.896,4.329 L3.786,15.102 C3.836,15.389 4.085,15.598 4.377,15.598 L6.511,15.598 L9.489,15.598 L11.623,15.598 C11.914,15.598 12.163,15.389 12.214,15.102 L14.104,4.329 L15.4,4.329 C15.731,4.329 16,4.06 16,3.729 C16,3.397 15.731,3.128 15.4,3.128 L15.4,3.128 L15.4,3.128 M3.114,4.329 L5.139,4.329 L5.866,14.399 L4.881,14.399 L3.114,4.329 L3.114,4.329 L3.114,4.329 M7.069,14.399 L6.343,4.329 L9.657,4.329 L8.931,14.399 L7.069,14.399 L7.069,14.399 L7.069,14.399 M11.119,14.399 L10.134,14.399 L10.86,4.329 L12.886,4.329 L11.119,14.399 L11.119,14.399 L11.119,14.399 M7.058,1.603 L8.942,1.603 C9.361,1.603 9.702,1.943 9.702,2.362 L9.702,3.128 L6.298,3.128 L6.298,2.362 C6.298,1.943 6.639,1.603 7.058,1.603 L7.058,1.603 L7.058,1.603" id="Shape"></path>
            </g>
        </g>
    </g>
</svg>
